src/svgs/jenkins.svg

<?xml version="1.0" encoding="UTF-8" standalone="no"?>
<svg
   viewBox="0 0 1200 1000"
   version="1.1"
   id="svg961"
   xmlns="http://www.w3.org/2000/svg"
   xmlns:svg="http://www.w3.org/2000/svg">
  <defs
     id="defs965" />
  <path
     id="path955"
     d="M 592.90039 128 C 584.20039 129.3 575.50039 130.50039 566.90039 131.90039 C 535.30039 137.30039 506.29961 149.70039 479.09961 166.40039 C 475.09961 168.90039 471.09961 171.50039 467.09961 173.90039 C 451.99961 183.10039 441.00078 195.7 434.80078 212.5 C 433.80078 215.2 431.40039 217.8 428.90039 219.5 C 414.30039 229.3 408.6 243.80078 408 260.30078 C 407.4 274.20078 408.59961 288.1 408.59961 302 C 408.59961 304.8 407.20078 307.70039 406.30078 310.40039 C 403.90078 317.20039 400.20078 323.80078 399.30078 330.80078 C 396.10078 356.00078 402.10039 378.89961 419.40039 398.09961 C 425.50039 404.89961 433.8 408.70039 442.5 411.40039 C 445.8 412.40039 447.59961 414 448.09961 417.5 C 449.89961 429.4 454.50078 440.19922 461.30078 450.19922 C 463.00078 452.79922 464.30078 456 464.80078 459 C 465.70078 464.2 463.79922 467.9 458.69922 471 C 435.39922 485.1 412.29922 499.69961 389.19922 514.09961 C 386.89922 515.49961 384.50039 516.69961 381.90039 517.59961 C 373.00039 520.69961 365.8 525.4 363 535 L 363 542.09961 C 371.6 565.39961 380.9 588.40039 388.5 611.90039 C 397.5 639.40039 400.79961 668.00078 402.59961 696.80078 C 403.49961 710.70078 403.90039 724.50039 404.40039 738.40039 C 404.60039 745.10039 407.99922 749.80078 413.69922 752.30078 C 434.09922 761.40078 454.5 770.39961 475 779.09961 C 486.2 783.79961 497.99922 785.99961 510.19922 785.09961 C 513.59922 784.89961 514.69922 786.10078 515.69922 789.30078 C 522.99922 812.50078 530.6 835.60078 538 858.80078 C 539 861.90078 540.60039 863.49961 543.90039 864.09961 C 557.10039 866.29961 570.20078 868.60039 583.30078 870.90039 C 584.80078 871.20039 586.19922 871.50078 587.69922 871.80078 L 629.40039 871.80078 C 637.00039 871.10078 644.59961 870.79961 652.09961 869.59961 C 659.49961 868.39961 667.09961 866.79922 674.09961 864.19922 C 682.29961 861.09922 685.60078 854.6 684.30078 845.5 C 682.90078 835.3 683.2 835.29922 693 832.69922 C 711.1 827.89922 714.99922 821.40078 711.19922 803.30078 C 708.99922 792.50078 707.20078 781.70039 705.30078 770.90039 C 704.90078 768.40039 705.09961 765.80078 705.09961 763.30078 C 705.09961 759.70078 706.49922 757.50039 710.19922 756.40039 C 714.29922 755.20039 716.90078 752.09922 717.80078 747.69922 C 718.10078 746.29922 719.20039 744.50039 720.40039 743.90039 C 731.10039 739.00039 742.39961 737.49961 754.09961 738.59961 C 754.89961 738.69961 756.10078 739 756.30078 739.5 C 759.20078 747.6 766.59961 747.79922 773.09961 748.19922 C 783.49961 748.89922 794.10039 749.30078 804.40039 748.30078 C 821.90039 746.60078 829.40078 733.90078 833.80078 718.80078 C 835.10078 714.30078 835.90039 709.6 836.90039 705 L 836.90039 692.80078 C 833.80039 680.30078 830.6 667.69922 827 655.19922 C 819.2 628.29922 803.10039 621.00078 776.40039 627.30078 C 765.00039 630.00078 754.19961 635.39961 743.09961 639.59961 C 741.39961 640.19961 739.69961 640.9 737.09961 642 C 738.19961 638.9 738.89922 636.7 739.69922 634.5 C 751.49922 599 763.39961 563.59961 775.09961 528.09961 C 780.29961 512.49961 776.8 499.50039 763.5 489.40039 C 755.7 483.40039 748.19961 477.10078 740.59961 470.80078 C 737.69961 468.40078 734.79922 466.00039 732.19922 463.40039 C 722.79922 454.20039 722.49961 452.60039 729.09961 441.40039 C 741.99961 419.20039 748.20039 394.80039 752.40039 369.90039 C 757.30039 341.30039 759.79961 312.40078 758.59961 283.30078 C 757.29961 250.30078 750.40078 218.79961 730.30078 191.59961 C 703.90078 155.99961 669.30078 134.19922 624.80078 129.19922 C 621.60078 128.79922 618.50078 128.4 615.30078 128 L 592.90039 128 z M 601.64258 143.69727 C 605.68789 143.80039 609.75078 144.1 613.80078 144.5 C 636.00078 146.7 657.1 153.39961 677 163.59961 C 690.3 170.39961 700.10039 181.10039 709.40039 192.40039 C 714.00039 198.00039 718.3 203.80039 723.5 210.40039 C 713.1 209.20039 703.49961 208.4 697.09961 217 C 694.89961 220 694.2 224.10078 693.5 228.30078 C 699.19672 224.65488 704.82672 223.31022 710.41211 223.66211 L 710.40039 223.69922 C 710.40039 223.69922 723.29961 225.90078 735.09961 244.30078 C 746.89961 262.70078 747.40039 295.19922 747.40039 295.19922 C 747.40039 295.19922 747.90078 324.10078 744.30078 353.30078 C 736.71832 411.95592 695.7588 461.58647 685.34961 473.38477 C 673.19904 481.79652 659.00213 487.01826 644.19922 490.59961 C 630.09922 493.99961 616.29961 494.30078 602.59961 489.80078 C 587.39961 484.80078 573.69961 476.89961 561.59961 466.09961 C 547.49961 453.49961 536.6 438.19961 525.5 423.09961 C 525 422.39961 524.50039 421.8 523.90039 421 C 523.00039 425.5 524.70078 432.10078 527.80078 437.80078 C 535.70078 452.00078 546.90039 463.60078 558.40039 474.80078 C 563.90039 480.20078 570.20039 484.80078 576.90039 490.30078 C 572.20039 490.30078 522.10078 494.60039 509.30078 491.40039 C 494.70078 487.90039 486.7 476.3 480.5 463.5 C 472.8 447.5 466.2 431.10039 463 413.40039 C 462.1 408.30039 463.40039 404.6 466.90039 401 C 469.20039 398.6 471.6 395.99961 473 393.09961 C 473.8 391.29961 473.09922 388.5 472.19922 386.5 C 471.89922 385.9 468.50078 386.3 466.80078 387 C 464.50078 387.9 462.40078 389.50039 460.30078 390.90039 C 451.10078 397.30039 443.49922 397.60078 434.19922 391.30078 C 422.29922 383.30078 416.30078 371.40039 412.80078 357.90039 C 409.80078 346.40039 410.09922 335.30078 417.19922 325.30078 C 424.49922 315.00078 434.50078 309.70078 447.30078 311.30078 C 455.50078 312.30078 460.49961 317.9 463.59961 325 C 465.59961 329.5 466.8 334.3 468 339 C 468.7 341.8 470.00039 342.99961 472.90039 342.59961 C 476.60039 342.09961 480.4 342.09922 484 341.19922 C 492 339.19922 493.99922 335.7 492.19922 327.5 C 490.39922 319.6 488.19922 311.70078 486.69922 303.80078 C 484.59922 293.10078 486.6 282.59961 488.5 272.09961 C 490.7 260.29961 492.90039 248.5 493.90039 236.5 C 494.40039 230.3 491.99922 223.89961 491.19922 217.59961 C 490.89922 215.19961 490.9 212.19922 492 210.19922 C 499.1 196.49922 509.80078 185.80078 522.30078 177.30078 C 536.50078 167.60078 551.3 158.69922 566.5 150.69922 C 577.525 144.84922 589.50664 143.38789 601.64258 143.69727 z M 576.98828 216.03516 C 570.93672 216.10547 565.34961 218.30039 560.09961 221.90039 C 548.89961 229.60039 540.00039 238.89922 538.40039 253.19922 C 538.20039 256.39922 538.19961 259.69961 543.09961 261.09961 C 543.99961 259.19961 544.79961 257.6 545.59961 256 C 553.89961 240.3 566.49961 227.4 588.09961 231.5 C 591.59961 232.2 592.70039 230.5 592.90039 227.5 C 593.20039 222.8 588.89922 217.89922 583.19922 216.69922 C 581.07422 216.22422 579.00547 216.01172 576.98828 216.03516 z M 708.74219 263.27734 C 708.59144 263.25903 708.44453 263.26641 708.30078 263.30078 C 703.70078 264.40078 709.1 281.09922 712.5 289.19922 C 715.8 296.99922 715.1 298.20039 706.5 298.90039 C 704.1 299.10039 690.99922 296.6 689.19922 301 C 687.19922 305.5 691.79922 312.50078 698.19922 313.30078 C 708.39922 314.50078 717.09961 311.10078 724.59961 304.30078 C 727.19961 302.00078 727.29961 299.90078 725.59961 296.80078 C 721.33711 289.05078 713.41527 263.84507 708.74219 263.27734 z M 589.95117 264.2832 C 589.62314 264.20344 589.33711 264.20703 589.09961 264.30078 C 582.69961 267.60078 598.50039 298.30039 596.40039 303.90039 C 596.20039 307.20039 580.79961 305.7 573.09961 305 C 568.39961 304.6 565.4 307.19922 567 311.69922 C 567.9 314.09922 570.10039 316.80039 572.40039 317.90039 C 582.00039 322.20039 592.2 323.30078 602 319.30078 C 613.8 314.60078 614.39922 305.00078 611.69922 294.80078 C 609.26172 285.23828 594.87158 265.47961 589.95117 264.2832 z M 648.80078 272.90039 C 648.30078 274.50039 647.30078 276.09922 647.30078 277.69922 C 647.30078 280.39922 647.70078 283.09922 648.30078 285.69922 C 651.40078 300.79922 659.50039 313.50039 668.90039 325.40039 C 675.30039 333.50039 681.90078 341.39961 688.80078 349.09961 C 694.80078 355.79961 693.29922 367.50039 684.19922 370.40039 C 679.09922 372.00039 674.40039 374.99961 669.40039 377.09961 C 660.50039 380.79961 651.69922 384.7 641.69922 384.5 C 633.99922 384.3 630.9 381.99922 629 374.69922 C 628.3 371.89922 627.49961 369.19922 626.59961 366.19922 C 621.49961 371.99922 621.29961 379.00039 624.59961 387.40039 C 627.19961 394.00039 632.40039 394.1 637.90039 394 C 639.80039 394 641.6 393.79922 643.5 393.69922 C 664.7 392.59922 682.70039 382.99922 699.90039 371.69922 C 701.00039 370.99922 701.80078 369.39961 702.30078 368.09961 C 703.40078 365.09961 703.89961 361.90039 705.09961 358.90039 C 707.79961 352.30039 705.6 347.70039 700.5 342.90039 C 685.3 328.60039 672.20078 312.39922 661.30078 294.69922 C 657.90078 289.19922 655.9 282.80039 653 276.90039 C 652.2 275.30039 650.20078 274.20039 648.80078 272.90039 z M 711.09961 397.40039 C 709.89961 397.70039 708.89961 397.79922 708.09961 398.19922 C 694.69961 405.09922 681.79922 413.39922 666.19922 415.19922 C 665.19922 415.29922 663.79922 417.20078 663.69922 418.30078 C 663.39922 423.00078 663.59961 427.69961 663.59961 432.59961 C 684.49961 433.29961 702.39961 417.80039 711.09961 397.40039 z M 585.59961 408.80078 C 587.19961 411.20078 588.60039 413.69922 590.40039 415.69922 C 596.60039 422.59922 604.60078 426.3 613.30078 429 C 627.50078 433.3 642.00078 435 657.30078 434 C 657.30078 429.8 657.20078 426.29922 657.30078 422.69922 C 657.40078 417.99922 655.49961 416.40078 650.59961 416.30078 C 638.09961 416.10078 625.49961 415.8 613.09961 414.5 C 603.99961 413.5 595.19961 410.80078 585.59961 408.80078 z M 654.73828 553.17578 C 657.50078 553.50078 660.2 554.75078 663 556.80078 C 667 559.70078 671.8 561.49961 677 564.09961 C 677.3 579.79961 674.90039 629.70078 668.40039 638.80078 C 663.10039 626.70078 658.29961 614.99961 652.59961 603.59961 C 646.49961 591.19961 639.5 579.29961 633 567.09961 C 632 565.29961 630.9 562.69961 631.5 561.09961 C 632.6 558.49961 634.3 555.99961 638.5 557.09961 C 640.7 557.69961 643.79961 556.29961 646.09961 555.09961 C 649.14961 553.44961 651.97578 552.85078 654.73828 553.17578 z M 697.48828 561.4043 C 705.63809 560.99414 715.17422 565.675 719.19922 572.5 C 719.79922 573.5 720.00039 575.5 719.40039 576.5 C 706.80039 596.9 694.2 617.2 681.5 637.5 C 681.4 637.7 680.89922 637.79922 681.19922 637.69922 C 683.39922 619.69922 685.80039 601.39922 687.90039 583.19922 C 688.50039 578.19922 688.69922 573.1 688.69922 568 C 688.59922 564 690.99961 562.70039 694.09961 561.90039 C 695.18711 561.62539 696.32402 561.46289 697.48828 561.4043 z M 614.90039 570.5 C 628.40039 582.9 647.99961 623.10039 655.09961 640.40039 C 648.69961 638.60039 642.80078 637.50078 637.30078 635.30078 C 619.40078 628.10078 601.8 620.59922 584 613.19922 C 581.1 611.99922 580.39922 609.89961 581.69922 607.59961 C 585.29922 601.19961 588.40078 594.20039 593.30078 588.90039 C 599.60078 582.00039 607.50039 576.6 614.90039 570.5 z M 792.70312 645.38281 C 798.50586 645.96191 803.53711 649.52539 805.59961 655.90039 C 809.99961 669.60039 814.39922 683.70039 816.19922 697.90039 C 817.89922 713.10039 808.2 726.99922 791.5 727.69922 C 784.3 727.99922 777.19961 728.6 770.09961 727 C 769.99961 726.5 770.00039 725.90039 769.90039 725.40039 C 778.00039 723.60039 785.99961 721.8 794.09961 720 C 794.09961 719.6 794.09922 719.30039 794.19922 718.90039 C 791.29922 718.40039 788.39961 717.40039 785.59961 717.40039 C 775.79961 717.60039 766.10078 718.1 756.30078 718.5 C 750.40078 718.7 750.60078 718.49961 749.80078 712.59961 C 747.80078 697.49961 745.5 682.5 743.5 667.5 C 743.3 666.3 744.30039 664.09961 745.40039 663.59961 C 752.60039 660.09961 760.00078 656.79961 767.30078 653.59961 C 772.10078 651.49961 777.30039 649.99961 781.90039 647.59961 C 785.46289 645.76211 789.22148 645.03535 792.70312 645.38281 z M 603.41016 678.36914 C 610.36172 678.29414 617.32578 678.42578 624.30078 678.80078 C 632.60078 679.20078 640.89922 680.69961 649.19922 681.59961 C 651.89922 681.89961 652.3 683.49961 652.5 685.59961 C 653.5 701.09961 654.69961 716.5 655.59961 732 C 657.29961 761.4 658.7 790.90078 660.5 820.30078 C 661 828.30078 662.49922 836.19961 663.69922 845.09961 C 654.49922 846.79961 645.39961 848.9 636.09961 850 C 616.19961 852.4 596.29961 851.80039 576.59961 848.40039 C 569.09961 847.10039 561.70039 845.30039 554.40039 843.40039 C 552.80039 843.00039 550.80039 841.40039 550.40039 839.90039 C 544.10039 816.50039 536.99922 793.2 532.19922 769.5 C 526.99922 744 523.9 717.99922 520 692.19922 C 519.8 690.89922 519.79922 689.50039 519.69922 687.40039 C 527.09922 686.10039 534.09961 684.59961 541.09961 683.59961 C 561.79961 680.67461 582.55547 678.59414 603.41016 678.36914 z M 687.19922 761 C 688.49922 760.8 691.09922 762.19961 691.19922 763.09961 C 693.89922 777.99961 696.69961 793 698.59961 808 C 699.69961 816.9 699.8 816.50039 691.5 818.40039 C 686.8 819.50039 682.00078 820.50078 676.30078 821.80078 C 675.40078 802.00078 674.59922 783.19961 673.69922 764.09961 C 678.99922 762.79961 683.09922 761.6 687.19922 761 z " />
</svg>

<svg xmlns="http://www.w3.org/2000/svg" viewBox="0 0 1200 1000"><path d="M637.9 394c1.9 0 3.7-.2 5.6-.3 21.2-1.1 39.2-10.7 56.4-22 1.1-.7 1.9-2.3 2.4-3.6 1.1-3 1.6-6.2 2.8-9.2 2.7-6.6.5-11.2-4.6-16-15.2-14.3-28.3-30.5-39.2-48.2-3.4-5.5-5.4-11.9-8.3-17.8-.8-1.6-2.8-2.7-4.2-4-.5 1.6-1.5 3.2-1.5 4.8 0 2.7.4 5.4 1 8 3.1 15.1 11.2 27.8 20.6 39.7 6.4 8.1 13 16 19.9 23.7 6 6.7 4.5 18.4-4.6 21.3-5.1 1.6-9.8 4.6-14.8 6.7-8.9 3.7-17.7 7.6-27.7 7.4-7.7-.2-10.8-2.5-12.7-9.8-.7-2.8-1.5-5.5-2.4-8.5-5.1 5.8-5.3 12.8-2 21.2 2.6 6.6 7.8 6.7 13.3 6.6zm-47.5 21.7c6.2 6.9 14.2 10.6 22.9 13.3 14.2 4.3 28.7 6 44 5 0-4.2-.1-7.7 0-11.3.1-4.7-1.8-6.3-6.7-6.4-12.5-.2-25.1-.5-37.5-1.8-9.1-1-17.9-3.7-27.5-5.7 1.6 2.4 3 4.9 4.8 6.9zM573.1 305c-4.7-.4-7.7 2.2-6.1 6.7.9 2.4 3.1 5.1 5.4 6.2 9.6 4.3 19.8 5.4 29.6 1.4 11.8-4.7 12.4-14.3 9.7-24.5-2.6-10.2-18.8-32-22.6-30.5-6.4 3.3 9.4 34 7.3 39.6-.2 3.3-15.6 1.8-23.3 1.1zm-30-43.9c.9-1.9 1.7-3.5 2.5-5.1 8.3-15.7 20.9-28.6 42.5-24.5 3.5.7 4.6-1 4.8-4 .3-4.7-4-9.6-9.7-10.8-8.5-1.9-16.1.4-23.1 5.2-11.2 7.7-20.1 17-21.7 31.3-.2 3.2-.2 6.5 4.7 7.9zm123.1 154.1c-1 .1-2.4 2-2.5 3.1-.3 4.7-.1 9.4-.1 14.3 20.9.7 38.8-14.8 47.5-35.2-1.2.3-2.2.4-3 .8-13.4 6.9-26.3 15.2-41.9 17zm32-101.9c10.2 1.2 18.9-2.2 26.4-9 2.6-2.3 2.7-4.4 1-7.5-4.4-8-12.7-34.6-17.3-33.5s.8 17.8 4.2 25.9c3.3 7.8 2.6 9-6 9.7-2.4.2-15.5-2.3-17.3 2.1-2 4.5 2.6 11.5 9 12.3z"/><path d="M827 655.2c-7.8-26.9-23.9-34.2-50.6-27.9-11.4 2.7-22.2 8.1-33.3 12.3-1.7.6-3.4 1.3-6 2.4 1.1-3.1 1.8-5.3 2.6-7.5 11.8-35.5 23.7-70.9 35.4-106.4 5.2-15.6 1.7-28.6-11.6-38.7-7.8-6-15.3-12.3-22.9-18.6-2.9-2.4-5.8-4.8-8.4-7.4-9.4-9.2-9.7-10.8-3.1-22 12.9-22.2 19.1-46.6 23.3-71.5 4.9-28.6 7.4-57.5 6.2-86.6-1.3-33-8.2-64.5-28.3-91.7-26.4-35.6-61-57.4-105.5-62.4-3.2-.4-6.3-.8-9.5-1.2h-22.4c-8.7 1.3-17.4 2.5-26 3.9-31.6 5.4-60.6 17.8-87.8 34.5-4 2.5-8 5.1-12 7.5-15.1 9.2-26.1 21.8-32.3 38.6-1 2.7-3.4 5.3-5.9 7-14.6 9.8-20.3 24.3-20.9 40.8-.6 13.9.6 27.8.6 41.7 0 2.8-1.4 5.7-2.3 8.4-2.4 6.8-6.1 13.4-7 20.4-3.2 25.2 2.8 48.1 20.1 67.3 6.1 6.8 14.4 10.6 23.1 13.3 3.3 1 5.1 2.6 5.6 6.1 1.8 11.9 6.4 22.7 13.2 32.7 1.7 2.6 3 5.8 3.5 8.8.9 5.2-1 8.9-6.1 12-23.3 14.1-46.4 28.7-69.5 43.1-2.3 1.4-4.7 2.6-7.3 3.5-8.9 3.1-16.1 7.8-18.9 17.4v7.1c8.6 23.3 17.9 46.3 25.5 69.8 9 27.5 12.3 56.1 14.1 84.9.9 13.9 1.3 27.7 1.8 41.6.2 6.7 3.6 11.4 9.3 13.9 20.4 9.1 40.8 18.1 61.3 26.8 11.2 4.7 23 6.9 35.2 6 3.4-.2 4.5 1 5.5 4.2 7.3 23.2 14.9 46.3 22.3 69.5 1 3.1 2.6 4.7 5.9 5.3 13.2 2.2 26.3 4.5 39.4 6.8 1.5.3 2.9.6 4.4.9h41.7c7.6-.7 15.2-1 22.7-2.2 7.4-1.2 15-2.8 22-5.4 8.2-3.1 11.5-9.6 10.2-18.7-1.4-10.2-1.1-10.2 8.7-12.8 18.1-4.8 22-11.3 18.2-29.4-2.2-10.8-4-21.6-5.9-32.4-.4-2.5-.2-5.1-.2-7.6 0-3.6 1.4-5.8 5.1-6.9 4.1-1.2 6.7-4.3 7.6-8.7.3-1.4 1.4-3.2 2.6-3.8 10.7-4.9 22-6.4 33.7-5.3.8.1 2 .4 2.2.9 2.9 8.1 10.3 8.3 16.8 8.7 10.4.7 21 1.1 31.3.1 17.5-1.7 25-14.4 29.4-29.5 1.3-4.5 2.1-9.2 3.1-13.8v-12.2c-3.1-12.5-6.3-25.1-9.9-37.6zM480.5 463.5c-7.7-16-14.3-32.4-17.5-50.1-.9-5.1.4-8.8 3.9-12.4 2.3-2.4 4.7-5 6.1-7.9.8-1.8.1-4.6-.8-6.6-.3-.6-3.7-.2-5.4.5-2.3.9-4.4 2.5-6.5 3.9-9.2 6.4-16.8 6.7-26.1.4-11.9-8-17.9-19.9-21.4-33.4-3-11.5-2.7-22.6 4.4-32.6 7.3-10.3 17.3-15.6 30.1-14 8.2 1 13.2 6.6 16.3 13.7 2 4.5 3.2 9.3 4.4 14 .7 2.8 2 4 4.9 3.6 3.7-.5 7.5-.5 11.1-1.4 8-2 10-5.5 8.2-13.7-1.8-7.9-4-15.8-5.5-23.7-2.1-10.7-.1-21.2 1.8-31.7 2.2-11.8 4.4-23.6 5.4-35.6.5-6.2-1.9-12.6-2.7-18.9-.3-2.4-.3-5.4.8-7.4 7.1-13.7 17.8-24.4 30.3-32.9 14.2-9.7 29-18.6 44.2-26.6 14.7-7.8 31.1-7.8 47.3-6.2 22.2 2.2 43.3 8.9 63.2 19.1 13.3 6.8 23.1 17.5 32.4 28.8 4.6 5.6 8.9 11.4 14.1 18-10.4-1.2-20-2-26.4 6.6-2.2 3-2.9 7.1-3.6 11.3 10-6.4 19.8-5.9 29.5-1.1 9.3 4.5 16.6 11.2 20 21.2 1.9 5.7 3.5 11.8 4 17.8 2.4 24.7 3.9 49.4 1.4 74.1-3.4 32.4-11 63.8-28.4 91.8-7.5 12.1-15.4 24.7-25.7 34.2-13.8 12.8-31.5 19.8-50.1 24.3-14.1 3.4-27.9 3.7-41.6-.8-15.2-5-28.9-12.9-41-23.7-14.1-12.6-25-27.9-36.1-43-.5-.7-1-1.3-1.6-2.1-.9 4.5.8 11.1 3.9 16.8 7.9 14.2 19.1 25.8 30.6 37 5.5 5.4 11.8 10 18.5 15.5-4.7 0-54.8 4.3-67.6 1.1-14.6-3.5-22.6-15.1-28.8-27.9zm134.4 107c13.5 12.4 33.1 52.6 40.2 69.9-6.4-1.8-12.3-2.9-17.8-5.1-17.9-7.2-35.5-14.7-53.3-22.1-2.9-1.2-3.6-3.3-2.3-5.6 3.6-6.4 6.7-13.4 11.6-18.7 6.3-6.9 14.2-12.3 21.6-18.4zm37.7 33.1c-6.1-12.4-13.1-24.3-19.6-36.5-1-1.8-2.1-4.4-1.5-6 1.1-2.6 2.8-5.1 7-4 2.2.6 5.3-.8 7.6-2 6.1-3.3 11.3-2.4 16.9 1.7 4 2.9 8.8 4.7 14 7.3.3 15.7-2.1 65.6-8.6 74.7-5.3-12.1-10.1-23.8-15.8-35.2zM636.1 850c-19.9 2.4-39.8 1.8-59.5-1.6-7.5-1.3-14.9-3.1-22.2-5-1.6-.4-3.6-2-4-3.5-6.3-23.4-13.4-46.7-18.2-70.4-5.2-25.5-8.3-51.5-12.2-77.3-.2-1.3-.2-2.7-.3-4.8 7.4-1.3 14.4-2.8 21.4-3.8 27.6-3.9 55.3-6.3 83.2-4.8 8.3.4 16.6 1.9 24.9 2.8 2.7.3 3.1 1.9 3.3 4 1 15.5 2.2 30.9 3.1 46.4 1.7 29.4 3.1 58.9 4.9 88.3.5 8 2 15.9 3.2 24.8-9.2 1.7-18.3 3.8-27.6 4.9zm55.4-31.6c-4.7 1.1-9.5 2.1-15.2 3.4-.9-19.8-1.7-38.6-2.6-57.7 5.3-1.3 9.4-2.5 13.5-3.1 1.3-.2 3.9 1.2 4 2.1 2.7 14.9 5.5 29.9 7.4 44.9 1.1 8.9 1.2 8.5-7.1 10.4zm-10-180.9c-.1.2-.6.3-.3.2 2.2-18 4.6-36.3 6.7-54.5.6-5 .8-10.1.8-15.2-.1-4 2.3-5.3 5.4-6.1 8.7-2.2 20.5 2.8 25.1 10.6.6 1 .8 3 .2 4-12.6 20.4-25.2 40.7-37.9 61zm110 90.2c-7.2.3-14.3.9-21.4-.7-.1-.5-.1-1.1-.2-1.6 8.1-1.8 16.1-3.6 24.2-5.4 0-.4 0-.7.1-1.1-2.9-.5-5.8-1.5-8.6-1.5-9.8.2-19.5.7-29.3 1.1-5.9.2-5.7 0-6.5-5.9-2-15.1-4.3-30.1-6.3-45.1-.2-1.2.8-3.4 1.9-3.9 7.2-3.5 14.6-6.8 21.9-10 4.8-2.1 10-3.6 14.6-6 9.5-4.9 20.4-1.9 23.7 8.3 4.4 13.7 8.8 27.8 10.6 42 1.7 15.2-8 29.1-24.7 29.8z"/><path d="M710.4 223.7s12.9 2.2 24.7 20.6 12.3 50.9 12.3 50.9.5 28.9-3.1 58.1c-8.7 67.3-61.4 122.8-61.4 122.8l35.7-29.9 25.7-51.3 9.2-60.6v-60.6l-8.4-50.2-32-7.8-2.7 8z"/></svg>
